X: 30803
T: Other High, The
R: reel
M: 4/4
K: Dmajor
f2df ecAG|FDE/F/G AdcA|G2FG Adde|fded B/c/deg|
f2df ecAG|FDE/F/G AdcA|G2FG Addc|AB/A/GE EDD2:|
a2fa dafa|a2fa dafa|b2gb ebgb|b2gb ebgb|
a2fa dafa|a2fa dafa|bgaf gefd|ABAG FDD2:|

